!!!OTL: Der Gluecksjaeger
!!!OTL-incipit:Es bliess sich ein Jaeger wohl in sein Horn, wohl in sein Horn,
!!!ARE: Europa, Mitteleuropa, Deutschland (BRD), Westfalen, Muensterland
!!!YOR: 6, S. 190
!!    1842 aufgezeichnet
!!!SCT: Q0134
!!!TXL: @@DE
!!!YEM: Copyright 1995, estate of Helmut Schaffrath.
**kern	**text
*ICvox	*
*M4/4	*
*met(c)	*
*k[f#]	*
*G:	*
{8d	1._Es
=1	=1
4g	bließ
8gL	sich
8gJ	ein
4g	Jä-
8gL	-ger
8aJ	wohl
=2	=2
4g	in
(8f#L	sein
8eJ)	.
4d	Horn,
(8cL	wohl
8eJ)	.
=3	=3
4.e	in
8d	sein
4d}	Horn,
{4g	doch
=4	=4
(8f#L	al-
8aJ)	.
8aL	-le
8aJ	sein
4a	Bla-
8bL	-sen,
8aJ	das
=5	=5
4g	war
(8f#L	ver-
8eJ)	.
(4d	-lorn;
8eL	.
8f#J)}	.
=6	=6
{4g	hop-
4g	-sa-
4g	-sa,
8r	.
8b	zum
=7	=7
8.aL	fal-
16gJ	-le-
8.f#L	-ral-
16gJ	-le-
4a	-ra,
8r}	.
{8cc	doch
=8	=8
(8bL	al-
8aJ)	.
8bL	-le
8ccJ	sein
4dd	Bla-
8gL	-sen,
8aJ	das
=9	=9
4b	war
4a	ver-
4g	-lorn.
8r}	.
==	==
!!!AGN: Ballade, Jagd, Flucht, Verfuehrung
!! Pause am Ende der zweiten Zeile weggelassen. Anhaengsel an der
!!    ersten Zeile. Dritte Zeile = Refrain auf sinnfreie Silben.
!!!ONB: ESAC (Essen Associative Code) Database: BALLADE
!!!AMT: simple quadruple
!!!AIN: vox
!!!EED: Helmut Schaffrath
!!!EEV: 1.0
!!@@COMMENT:"A86 475 nach A. von Droste-Hülshoff.
!!Westfalen, 1842. JbſVJ 1, 1928, 118f."
!!@@END:
!!!source: Deutsche Volkslieder mit ihren Melodien Balladen. Herausgegeben vom Deutschen Volksliedarchiv. Sechster Band. Freiburg/Breisgau 1976.
!!!page: 190
!!!ENC: Anna Maria Matuszewska
!!!EEV: 2025/03/06
*-	*-
